packages/ui/src/lib/icons/svg/youtube.svg

<svg width="100%" height="100%" viewBox="0 0 16 16" fill="none" xmlns="http://www.w3.org/2000/svg">
<path fill-rule="evenodd" clip-rule="evenodd" d="M13.4695 2.82855C14.0722 3.00964 14.5459 3.54128 14.7073 4.21778C14.9988 5.44273 15 8 15 8C15 8 15 10.5573 14.7073 11.7822C14.5459 12.4587 14.0722 12.9904 13.4695 13.1714C12.3782 13.5 7.99998 13.5 7.99998 13.5C7.99998 13.5 3.62183 13.5 2.53045 13.1714C1.92773 12.9904 1.45407 12.4587 1.29272 11.7822C1 10.5573 1 8 1 8C1 8 1 5.44273 1.29272 4.21778C1.45407 3.54128 1.92773 3.00964 2.53045 2.82855C3.62183 2.5 7.99998 2.5 7.99998 2.5C7.99998 2.5 12.3782 2.5 13.4695 2.82855Z" stroke="currentColor" stroke-width="1.5"/>
<path fill-rule="evenodd" clip-rule="evenodd" d="M11 8.00002L6 11V5L11 8.00002Z" fill="currentColor"/>
</svg>

<svg xmlns="http://www.w3.org/2000/svg" fill="none" viewBox="0 0 16 16" width="100%" height="100%"><path stroke="currentColor" stroke-width="1.5" d="M13.47 2.829c.602.18 1.076.712 1.237 1.389C15 5.443 15 8 15 8s0 2.557-.293 3.782c-.161.677-.635 1.208-1.238 1.39C12.38 13.5 8 13.5 8 13.5s-4.378 0-5.47-.329c-.602-.18-1.076-.712-1.237-1.389C1 10.557 1 8 1 8s0-2.557.293-3.782c.161-.677.635-1.208 1.237-1.39C3.622 2.5 8 2.5 8 2.5s4.378 0 5.47.329Z" clip-rule="evenodd"/><path fill="currentColor" fill-rule="evenodd" d="m11 8-5 3V5z" clip-rule="evenodd"/></svg>
